assets/1. F-P/Open mailbox with lowered flag/Color/Open.Mailbox.With.Lowered.Flag-color.svg

<svg width="100%" height="100%" viewBox="0 0 32 32" fill="none" xmlns="http://www.w3.org/2000/svg">
<path d="M13.1862 23.9227H17.8369V28.8791H13.1862V23.9227Z" fill="url(#paint0_linear_18_22120)"/>
<path d="M13.1862 23.9227H17.8369V28.8791H13.1862V23.9227Z" fill="url(#paint1_linear_18_22120)"/>
<path d="M13.1862 23.9227H17.8369V28.8791H13.1862V23.9227Z" fill="url(#paint2_radial_18_22120)"/>
<g filter="url(#filter0_i_18_22120)">
<path d="M4.04352 13.5398C4.04352 10.5022 6.50595 8.03979 9.54352 8.03979H22.4565C25.4941 8.03979 27.9565 10.5022 27.9565 13.5398V22.9228C27.9565 23.4751 27.5088 23.9228 26.9565 23.9228H5.04352C4.49123 23.9228 4.04352 23.4751 4.04352 22.9228V13.5398Z" fill="url(#paint3_linear_18_22120)"/>
</g>
<g filter="url(#filter1_f_18_22120)">
<path d="M5.48915 23.4297H14.6878C15.2981 23.4297 15.7928 23.0097 15.7928 22.4916V13.6899C15.7928 10.9468 13.3653 8.54022 10.0885 8.54023C6.99614 8.37664 4.38422 10.4601 4.38422 13.6899V22.4916C4.38422 23.0097 4.87889 23.4297 5.48915 23.4297Z" fill="#4473C1"/>
<path d="M5.48915 23.5547H14.6878C15.3472 23.5547 15.9178 23.0971 15.9178 22.4916V13.6899C15.9178 10.8703 13.4272 8.41684 10.0918 8.41524C6.93998 8.25008 4.25922 10.3794 4.25922 13.6899V22.4916C4.25922 23.0971 4.82982 23.5547 5.48915 23.5547Z" stroke="url(#paint4_linear_18_22120)" stroke-width="0.25"/>
</g>
<g filter="url(#filter2_i_18_22120)">
<path d="M28.6875 13.7378L28.6875 19.1175C28.6875 19.5593 28.3771 19.9175 27.9941 19.9175L25.2909 19.9175C24.9079 19.9175 24.5975 19.5593 24.5975 19.1175L24.5975 13.7378L28.6875 13.7378Z" fill="url(#paint5_linear_18_22120)"/>
</g>
<g filter="url(#filter3_f_18_22120)">
<path d="M23.84 13.7378L23.84 19.1175C23.84 19.5593 23.5296 19.9175 23.1466 19.9175L20.4434 19.9175C20.0604 19.9175 19.75 19.5593 19.75 19.1175L19.75 13.7378L23.84 13.7378Z" fill="#4B81D5"/>
</g>
<path d="M28.6207 12.2295C29.2551 12.2295 29.7693 12.7438 29.7693 13.3782C29.7693 14.0126 29.2551 14.5269 28.6207 14.5269L19.0037 14.5269L19.0037 12.2295L28.6207 12.2295Z" fill="url(#paint6_linear_18_22120)"/>
<path d="M28.6207 12.2295C29.2551 12.2295 29.7693 12.7438 29.7693 13.3782C29.7693 14.0126 29.2551 14.5269 28.6207 14.5269L19.0037 14.5269L19.0037 12.2295L28.6207 12.2295Z" fill="url(#paint7_linear_18_22120)"/>
<path d="M28.6207 12.2295C29.2551 12.2295 29.7693 12.7438 29.7693 13.3782C29.7693 14.0126 29.2551 14.5269 28.6207 14.5269L19.0037 14.5269L19.0037 12.2295L28.6207 12.2295Z" fill="url(#paint8_radial_18_22120)"/>
<g filter="url(#filter4_f_18_22120)">
<rect x="19.75" y="13.1406" width="8.51562" height="0.318726" rx="0.159363" fill="#AEA4BF"/>
</g>
<g filter="url(#filter5_f_18_22120)">
<ellipse cx="17.8467" cy="13.9094" rx="1.57236" ry="2.40625" fill="#264FC5"/>
</g>
<circle cx="19.3268" cy="13.3782" r="2.40625" fill="url(#paint9_radial_18_22120)"/>
<circle cx="19.3268" cy="13.3782" r="2.40625" fill="url(#paint10_radial_18_22120)"/>
<circle cx="19.3268" cy="13.3782" r="2.40625" fill="url(#paint11_radial_18_22120)"/>
<g filter="url(#filter6_f_18_22120)">
<path d="M4.78021 14.2383C4.78021 11.6106 6.91036 9.48047 9.53802 9.48047C12.1657 9.48047 14.2958 11.6106 14.2958 14.2383V22.2305C14.2958 22.3685 14.1839 22.4805 14.0458 22.4805H5.03021C4.89214 22.4805 4.78021 22.3685 4.78021 22.2305V14.2383Z" fill="url(#paint12_linear_18_22120)"/>
</g>
<path d="M5.16852 14.2422C5.16852 11.6145 7.29866 9.48438 9.92633 9.48438C12.554 9.48438 14.6841 11.6145 14.6841 14.2422V22.2344C14.6841 22.3724 14.5722 22.4844 14.4341 22.4844H5.41852C5.28045 22.4844 5.16852 22.3724 5.16852 22.2344V14.2422Z" fill="url(#paint13_linear_18_22120)"/>
<defs>
<filter id="filter0_i_18_22120" x="4.04352" y="7.63979" width="23.913" height="16.2831" filterUnits="userSpaceOnUse" color-interpolation-filters="sRGB">
<feFlood flood-opacity="0" result="BackgroundImageFix"/>
<feBlend mode="normal" in="SourceGraphic" in2="BackgroundImageFix" result="shape"/>
<feColorMatrix in="SourceAlpha" type="matrix" values="0 0 0 0 0 0 0 0 0 0 0 0 0 0 0 0 0 0 127 0" result="hardAlpha"/>
<feOffset dy="-0.4"/>
<feGaussianBlur stdDeviation="0.375"/>
<feComposite in2="hardAlpha" operator="arithmetic" k2="-1" k3="1"/>
<feColorMatrix type="matrix" values="0 0 0 0 0.262745 0 0 0 0 0.356863 0 0 0 0 1 0 0 0 1 0"/>
<feBlend mode="normal" in2="shape" result="effect1_innerShadow_18_22120"/>
</filter>
<filter id="filter1_f_18_22120" x="3.63422" y="7.78125" width="12.9086" height="16.3984" filterUnits="userSpaceOnUse" color-interpolation-filters="sRGB">
<feFlood flood-opacity="0" result="BackgroundImageFix"/>
<feBlend mode="normal" in="SourceGraphic" in2="BackgroundImageFix" result="shape"/>
<feGaussianBlur stdDeviation="0.25" result="effect1_foregroundBlur_18_22120"/>
</filter>
<filter id="filter2_i_18_22120" x="24.5975" y="13.4878" width="4.49003" height="6.42969" filterUnits="userSpaceOnUse" color-interpolation-filters="sRGB">
<feFlood flood-opacity="0" result="BackgroundImageFix"/>
<feBlend mode="normal" in="SourceGraphic" in2="BackgroundImageFix" result="shape"/>
<feColorMatrix in="SourceAlpha" type="matrix" values="0 0 0 0 0 0 0 0 0 0 0 0 0 0 0 0 0 0 127 0" result="hardAlpha"/>
<feOffset dx="0.4" dy="-0.25"/>
<feGaussianBlur stdDeviation="0.5"/>
<feComposite in2="hardAlpha" operator="arithmetic" k2="-1" k3="1"/>
<feColorMatrix type="matrix" values="0 0 0 0 0.858824 0 0 0 0 0.203922 0 0 0 0 0.2 0 0 0 1 0"/>
<feBlend mode="normal" in2="shape" result="effect1_innerShadow_18_22120"/>
</filter>
<filter id="filter3_f_18_22120" x="16.75" y="10.7378" width="10.09" height="12.1797" filterUnits="userSpaceOnUse" color-interpolation-filters="sRGB">
<feFlood flood-opacity="0" result="BackgroundImageFix"/>
<feBlend mode="normal" in="SourceGraphic" in2="BackgroundImageFix" result="shape"/>
<feGaussianBlur stdDeviation="1.5" result="effect1_foregroundBlur_18_22120"/>
</filter>
<filter id="filter4_f_18_22120" x="19.25" y="12.6406" width="9.51562" height="1.31873" filterUnits="userSpaceOnUse" color-interpolation-filters="sRGB">
<feFlood flood-opacity="0" result="BackgroundImageFix"/>
<feBlend mode="normal" in="SourceGraphic" in2="BackgroundImageFix" result="shape"/>
<feGaussianBlur stdDeviation="0.25" result="effect1_foregroundBlur_18_22120"/>
</filter>
<filter id="filter5_f_18_22120" x="15.0244" y="10.2532" width="5.64471" height="7.3125" filterUnits="userSpaceOnUse" color-interpolation-filters="sRGB">
<feFlood flood-opacity="0" result="BackgroundImageFix"/>
<feBlend mode="normal" in="SourceGraphic" in2="BackgroundImageFix" result="shape"/>
<feGaussianBlur stdDeviation="0.625" result="effect1_foregroundBlur_18_22120"/>
</filter>
<filter id="filter6_f_18_22120" x="4.53021" y="9.23047" width="10.0156" height="13.5" filterUnits="userSpaceOnUse" color-interpolation-filters="sRGB">
<feFlood flood-opacity="0" result="BackgroundImageFix"/>
<feBlend mode="normal" in="SourceGraphic" in2="BackgroundImageFix" result="shape"/>
<feGaussianBlur stdDeviation="0.125" result="effect1_foregroundBlur_18_22120"/>
</filter>
<linearGradient id="paint0_linear_18_22120" x1="16.8217" y1="28.8791" x2="13.1862" y2="28.8791" gradientUnits="userSpaceOnUse">
<stop stop-color="#8F616C"/>
<stop offset="0.419865" stop-color="#7D4261"/>
<stop offset="0.77392" stop-color="#5E3A43"/>
</linearGradient>
<linearGradient id="paint1_linear_18_22120" x1="18.103" y1="28.8791" x2="17.353" y2="28.8791" gradientUnits="userSpaceOnUse">
<stop stop-color="#855A5D"/>
<stop offset="1" stop-color="#855A5D" stop-opacity="0"/>
</linearGradient>
<radialGradient id="paint2_radial_18_22120" cx="0" cy="0" r="1" gradientUnits="userSpaceOnUse" gradientTransform="translate(15.5115 28.8791) rotate(-90) scale(4.95639 5.62268)">
<stop offset="0.771623" stop-color="#632F53" stop-opacity="0"/>
<stop offset="1" stop-color="#5A3A46"/>
</radialGradient>
<linearGradient id="paint3_linear_18_22120" x1="20.5248" y1="23.9228" x2="20.5248" y2="10.2422" gradientUnits="userSpaceOnUse">
<stop offset="0.742721" stop-color="#5097DA"/>
<stop offset="1" stop-color="#5D98DA"/>
</linearGradient>
<linearGradient id="paint4_linear_18_22120" x1="17.2624" y1="18.6302" x2="9.29584" y2="18.6302" gradientUnits="userSpaceOnUse">
<stop offset="0.221698" stop-color="#3B7BDE"/>
<stop offset="1" stop-color="#3C84D5" stop-opacity="0"/>
</linearGradient>
<linearGradient id="paint5_linear_18_22120" x1="28.6875" y1="16.8276" x2="27" y2="16.8276" gradientUnits="userSpaceOnUse">
<stop stop-color="#FF8E4E"/>
<stop offset="1" stop-color="#F96941"/>
</linearGradient>
<linearGradient id="paint6_linear_18_22120" x1="25.4375" y1="14.5269" x2="25.4375" y2="12.9297" gradientUnits="userSpaceOnUse">
<stop stop-color="#926BC9"/>
<stop offset="1" stop-color="#A6A4AF"/>
</linearGradient>
<linearGradient id="paint7_linear_18_22120" x1="29.7693" y1="13.3782" x2="28.625" y2="13.3782" gradientUnits="userSpaceOnUse">
<stop stop-color="#BAB9BF"/>
<stop offset="1" stop-color="#BAB9BF" stop-opacity="0"/>
</linearGradient>
<radialGradient id="paint8_radial_18_22120" cx="0" cy="0" r="1" gradientUnits="userSpaceOnUse" gradientTransform="translate(29.625 13.0235) scale(0.9375 0.507812)">
<stop stop-color="#CFCBD8"/>
<stop offset="1" stop-color="#CFCBD8" stop-opacity="0"/>
</radialGradient>
<radialGradient id="paint9_radial_18_22120" cx="0" cy="0" r="1" gradientUnits="userSpaceOnUse" gradientTransform="translate(18.5966 15.7844) rotate(-70.371) scale(3.62801 4.37707)">
<stop stop-color="#9571C7"/>
<stop offset="1" stop-color="#B0B0B7"/>
</radialGradient>
<radialGradient id="paint10_radial_18_22120" cx="0" cy="0" r="1" gradientUnits="userSpaceOnUse" gradientTransform="translate(20.5028 13.3782) rotate(180) scale(3.58221)">
<stop offset="0.64555" stop-color="#948DA4" stop-opacity="0"/>
<stop offset="1" stop-color="#636697"/>
</radialGradient>
<radialGradient id="paint11_radial_18_22120" cx="0" cy="0" r="1" gradientUnits="userSpaceOnUse" gradientTransform="translate(20.5809 12.461) rotate(-23.1458) scale(2.22606 1.67626)">
<stop offset="0.246982" stop-color="#D0CCDA"/>
<stop offset="1" stop-color="#B6B6BD" stop-opacity="0"/>
</radialGradient>
<linearGradient id="paint12_linear_18_22120" x1="9.53802" y1="9.48047" x2="9.53802" y2="22.4805" gradientUnits="userSpaceOnUse">
<stop offset="0.191106" stop-color="#3255BF"/>
<stop offset="1" stop-color="#3255BF" stop-opacity="0"/>
</linearGradient>
<linearGradient id="paint13_linear_18_22120" x1="9.92633" y1="9.48438" x2="9.92633" y2="21.4375" gradientUnits="userSpaceOnUse">
<stop stop-color="#4B1776"/>
<stop offset="1" stop-color="#240B46"/>
</linearGradient>
</defs>
</svg>

<svg width="100%" height="100%" viewBox="0 0 32 32" xmlns="http://www.w3.org/2000/svg"><path fill="url(#a)" d="M13.186 23.923h4.65v4.956h-4.65z"/><path fill="url(#b)" d="M13.186 23.923h4.65v4.956h-4.65z"/><path fill="url(#c)" d="M13.186 23.923h4.65v4.956h-4.65z"/><g filter="url(#d)"><path fill="url(#e)" d="M4.044 13.54a5.5 5.5 0 0 1 5.5-5.5h12.912a5.5 5.5 0 0 1 5.5 5.5v9.383a1 1 0 0 1-1 1H5.044a1 1 0 0 1-1-1z"/></g><g filter="url(#f)"><path fill="#4473C1" d="M5.49 23.43h9.198c.61 0 1.105-.42 1.105-.938V13.69c0-2.743-2.428-5.15-5.704-5.15-3.093-.163-5.705 1.92-5.705 5.15v8.802c0 .518.495.938 1.105.938"/><path stroke="url(#g)" stroke-width=".25" d="M5.49 23.555h9.198c.66 0 1.23-.458 1.23-1.063V13.69c0-2.82-2.49-5.273-5.826-5.275C6.94 8.25 4.259 10.38 4.259 13.69v8.802c0 .605.57 1.063 1.23 1.063Z"/></g><g filter="url(#h)"><path fill="url(#i)" d="M28.688 13.738v5.38c0 .441-.31.8-.694.8h-2.703c-.383 0-.694-.359-.694-.8v-5.38z"/></g><g filter="url(#j)"><path fill="#4B81D5" d="M23.84 13.738v5.38c0 .441-.31.8-.693.8h-2.704c-.383 0-.693-.359-.693-.8v-5.38z"/></g><path fill="url(#k)" d="M28.62 12.23a1.149 1.149 0 0 1 0 2.297h-9.616V12.23z"/><path fill="url(#l)" d="M28.62 12.23a1.149 1.149 0 0 1 0 2.297h-9.616V12.23z"/><path fill="url(#m)" d="M28.62 12.23a1.149 1.149 0 0 1 0 2.297h-9.616V12.23z"/><g filter="url(#n)"><rect width="8.516" height=".319" x="19.75" y="13.141" fill="#AEA4BF" rx=".159"/></g><g filter="url(#o)"><ellipse cx="17.847" cy="13.909" fill="#264FC5" rx="1.572" ry="2.406"/></g><circle cx="19.327" cy="13.378" r="2.406" fill="url(#p)"/><circle cx="19.327" cy="13.378" r="2.406" fill="url(#q)"/><circle cx="19.327" cy="13.378" r="2.406" fill="url(#r)"/><g filter="url(#s)"><path fill="url(#t)" d="M4.78 14.238a4.758 4.758 0 1 1 9.516 0v7.993a.25.25 0 0 1-.25.25H5.03a.25.25 0 0 1-.25-.25z"/></g><path fill="url(#u)" d="M5.169 14.242a4.758 4.758 0 1 1 9.515 0v7.992a.25.25 0 0 1-.25.25H5.42a.25.25 0 0 1-.25-.25z"/><defs><linearGradient id="a" x1="16.822" x2="13.186" y1="28.879" y2="28.879" gradientUnits="userSpaceOnUse"><stop stop-color="#8F616C"/><stop offset=".42" stop-color="#7D4261"/><stop offset=".774" stop-color="#5E3A43"/></linearGradient><linearGradient id="b" x1="18.103" x2="17.353" y1="28.879" y2="28.879" gradientUnits="userSpaceOnUse"><stop stop-color="#855A5D"/><stop offset="1" stop-color="#855A5D" stop-opacity="0"/></linearGradient><linearGradient id="e" x1="20.525" x2="20.525" y1="23.923" y2="10.242" gradientUnits="userSpaceOnUse"><stop offset=".743" stop-color="#5097DA"/><stop offset="1" stop-color="#5D98DA"/></linearGradient><linearGradient id="g" x1="17.262" x2="9.296" y1="18.63" y2="18.63" gradientUnits="userSpaceOnUse"><stop offset=".222" stop-color="#3B7BDE"/><stop offset="1" stop-color="#3C84D5" stop-opacity="0"/></linearGradient><linearGradient id="i" x1="28.688" x2="27" y1="16.828" y2="16.828" gradientUnits="userSpaceOnUse"><stop stop-color="#FF8E4E"/><stop offset="1" stop-color="#F96941"/></linearGradient><linearGradient id="k" x1="25.438" x2="25.438" y1="14.527" y2="12.93" gradientUnits="userSpaceOnUse"><stop stop-color="#926BC9"/><stop offset="1" stop-color="#A6A4AF"/></linearGradient><linearGradient id="l" x1="29.769" x2="28.625" y1="13.378" y2="13.378" gradientUnits="userSpaceOnUse"><stop stop-color="#BAB9BF"/><stop offset="1" stop-color="#BAB9BF" stop-opacity="0"/></linearGradient><linearGradient id="t" x1="9.538" x2="9.538" y1="9.48" y2="22.48" gradientUnits="userSpaceOnUse"><stop offset=".191" stop-color="#3255BF"/><stop offset="1" stop-color="#3255BF" stop-opacity="0"/></linearGradient><linearGradient id="u" x1="9.926" x2="9.926" y1="9.484" y2="21.438" gradientUnits="userSpaceOnUse"><stop stop-color="#4B1776"/><stop offset="1" stop-color="#240B46"/></linearGradient><filter id="d" width="23.913" height="16.283" x="4.044" y="7.64" color-interpolation-filters="sRGB" filterUnits="userSpaceOnUse"><feFlood flood-opacity="0" result="BackgroundImageFix"/><feBlend in="SourceGraphic" in2="BackgroundImageFix" result="shape"/><feColorMatrix in="SourceAlpha" result="hardAlpha" values="0 0 0 0 0 0 0 0 0 0 0 0 0 0 0 0 0 0 127 0"/><feOffset dy="-.4"/><feGaussianBlur stdDeviation=".375"/><feComposite in2="hardAlpha" k2="-1" k3="1" operator="arithmetic"/><feColorMatrix values="0 0 0 0 0.262745 0 0 0 0 0.356863 0 0 0 0 1 0 0 0 1 0"/><feBlend in2="shape" result="effect1_innerShadow_18_22120"/></filter><filter id="f" width="12.909" height="16.398" x="3.634" y="7.781" color-interpolation-filters="sRGB" filterUnits="userSpaceOnUse"><feFlood flood-opacity="0" result="BackgroundImageFix"/><feBlend in="SourceGraphic" in2="BackgroundImageFix" result="shape"/><feGaussianBlur result="effect1_foregroundBlur_18_22120" stdDeviation=".25"/></filter><filter id="h" width="4.49" height="6.43" x="24.598" y="13.488" color-interpolation-filters="sRGB" filterUnits="userSpaceOnUse"><feFlood flood-opacity="0" result="BackgroundImageFix"/><feBlend in="SourceGraphic" in2="BackgroundImageFix" result="shape"/><feColorMatrix in="SourceAlpha" result="hardAlpha" values="0 0 0 0 0 0 0 0 0 0 0 0 0 0 0 0 0 0 127 0"/><feOffset dx=".4" dy="-.25"/><feGaussianBlur stdDeviation=".5"/><feComposite in2="hardAlpha" k2="-1" k3="1" operator="arithmetic"/><feColorMatrix values="0 0 0 0 0.858824 0 0 0 0 0.203922 0 0 0 0 0.2 0 0 0 1 0"/><feBlend in2="shape" result="effect1_innerShadow_18_22120"/></filter><filter id="j" width="10.09" height="12.18" x="16.75" y="10.738" color-interpolation-filters="sRGB" filterUnits="userSpaceOnUse"><feFlood flood-opacity="0" result="BackgroundImageFix"/><feBlend in="SourceGraphic" in2="BackgroundImageFix" result="shape"/><feGaussianBlur result="effect1_foregroundBlur_18_22120" stdDeviation="1.5"/></filter><filter id="n" width="9.516" height="1.319" x="19.25" y="12.641" color-interpolation-filters="sRGB" filterUnits="userSpaceOnUse"><feFlood flood-opacity="0" result="BackgroundImageFix"/><feBlend in="SourceGraphic" in2="BackgroundImageFix" result="shape"/><feGaussianBlur result="effect1_foregroundBlur_18_22120" stdDeviation=".25"/></filter><filter id="o" width="5.645" height="7.313" x="15.024" y="10.253" color-interpolation-filters="sRGB" filterUnits="userSpaceOnUse"><feFlood flood-opacity="0" result="BackgroundImageFix"/><feBlend in="SourceGraphic" in2="BackgroundImageFix" result="shape"/><feGaussianBlur result="effect1_foregroundBlur_18_22120" stdDeviation=".625"/></filter><filter id="s" width="10.016" height="13.5" x="4.53" y="9.23" color-interpolation-filters="sRGB" filterUnits="userSpaceOnUse"><feFlood flood-opacity="0" result="BackgroundImageFix"/><feBlend in="SourceGraphic" in2="BackgroundImageFix" result="shape"/><feGaussianBlur result="effect1_foregroundBlur_18_22120" stdDeviation=".125"/></filter><radialGradient id="c" cx="0" cy="0" r="1" gradientTransform="matrix(0 -4.95639 5.62268 0 15.511 28.88)" gradientUnits="userSpaceOnUse"><stop offset=".772" stop-color="#632F53" stop-opacity="0"/><stop offset="1" stop-color="#5A3A46"/></radialGradient><radialGradient id="m" cx="0" cy="0" r="1" gradientTransform="matrix(.9375 0 0 .50781 29.625 13.024)" gradientUnits="userSpaceOnUse"><stop stop-color="#CFCBD8"/><stop offset="1" stop-color="#CFCBD8" stop-opacity="0"/></radialGradient><radialGradient id="p" cx="0" cy="0" r="1" gradientTransform="rotate(-70.371 20.492 -5.296)scale(3.62801 4.37707)" gradientUnits="userSpaceOnUse"><stop stop-color="#9571C7"/><stop offset="1" stop-color="#B0B0B7"/></radialGradient><radialGradient id="q" cx="0" cy="0" r="1" gradientTransform="rotate(180 10.251 6.69)scale(3.58221)" gradientUnits="userSpaceOnUse"><stop offset=".646" stop-color="#948DA4" stop-opacity="0"/><stop offset="1" stop-color="#636697"/></radialGradient><radialGradient id="r" cx="0" cy="0" r="1" gradientTransform="matrix(2.04688 -.875 .6589 1.54133 20.58 12.461)" gradientUnits="userSpaceOnUse"><stop offset=".247" stop-color="#D0CCDA"/><stop offset="1" stop-color="#B6B6BD" stop-opacity="0"/></radialGradient></defs></svg>
